!!! OTL: Berkowitz308
!!! Chapter: 1
!!! Section: III
!!! Page: 74
!!! Mode: 
!!! Encoder: DJB
**kern
*staff1
*I"Piano
=1-
*clefG2
*k[f#c#g#d#]
*E:
*M6/8
8gg#\L
8b\
8b\J
8g#\L
8.ee\
16ee\Jk
=2
8ff#\L
8a\
8a\J
8f#/L
8.dd#/
16dd#/Jk
=3
8ee\L
8g#\
8g#\J
8f#/L
8a/
8cc#/J
=4
8b\L
8gg#\
8b\J
4a/
8b\
=5
8cc#\L
8.aa\
16aa\Jk
8gg#\L
8b\
8b\J
=6
8a\L
8ff#\
8ee\J
8dd#\L
8cc#\
8b\J
=7
!!linebreak:original
8ee\L
8g#\
8g#\J
8f#/L
8.a/
16cc#/Jk
=8
8b\L
8gg#\
8ff#\J
4ee\
8r
==
*-
